X:193
T:Cuckoo's Nest, The
R:song
H:See also #192, hornpipe#37, hornpipe#38
Z:id:hn-song-193
M:C|
L:1/8
K:Ador
EE | AAAG ABcA | BGGF G2
EE | GGGF GABG | AGAB A2
ED | CA,A,A, AAAA | GAGE G2
CD | EEEE EEED | C2A,2 A,2 ||
EE | AAAG ABcA | GEED E3
F | GGGF GABG | ABAG A2
CB, | A,A,A,A, AAAA | GAGE G2
CD | EEEE EEED | C2A,2 A,2 ||
W:There's a corner in the meadow where the lads and lasses meet
W:Oh they do here what they couldn't do out in the open street
W:Oh they play all kinds of games there, but the one I like the best
W:Is when every laddie rumples up the cuckoo's nest.
W:
W:Chorus:
W:Oh it's high the cuckoo, low the cuckoo, high the cuckoo's nest
W:It's high the cuckoo, low the cuckoo, high the cuckoo's nest
W:I'll give any maid a shilling and a bottle of the best
W:Just to rumple up the feathers of her cuckoo's nest
W:
W:I wooed her in the morning and I had her in the night
W:She was my very first one so I tried to do it right
W:I searched around and wandered and I never would have guessed
W:If she hadn't showed me where to find her cuckoo's nest
W:
W:Chorus
W:
W:When she showed me where to find it I knew just where to go
W:Through the underbrush and brambles where the little cuckoos grow
W:From the moment that I found it, she would never let me rest
W:From rumpling up the feathers of her cuckoo's nest.
W:
W:Chorus
W:
W:It was bushy, it was prickled, it was feathered all around
W:It was tucked away so neatly and it wasn't easy found
W:Though she said young man you're blundering, I knew it wasn't true
W:For I left her with the makings of a young cuckoo.
W:
W:Chorus

